X: 4
T: Stan Chapman's
R: jig
M: 6/8
L: 1/8
K: Gmaj
D3 DEG|A3 ABd|edg edB|dBG AGE|D3 DEG|A3 ABd|edg edB|dBG G3:|d3 dBd|e3 efg|dBG A3|BGD Dge|d3 dBd|e3 efg|dBG A3|1BGG Gge:|2BGG G3:||


Tune 324	Setting 13098

